X: 3243
T: Behind The Bush In The Garden
R: jig
M: 6/8
K: Adorian
B|:c2 A AGE|c2 A AGE|~G3 G2 A|~G3 E2G|
A2 B c2 d|e/f/g ~e3 d|c2 A BAG|A3 A2 B:|
|:c2 B c2 d|e/f/g ~e3 d|c2 B c2 d|e2 G G2 B|
c2 B c2 d|e/f/g ~e3 d|c2 A BAG|A3 A2 B:|

